X:1
T:All My Tomorrows
C:James Van Heusen
Z:All Rights Reserved
L:1/8
M:2/2
K:G
V:1 treble nm="Voice"
V:1
 z4 z2"^E7" E2 |:"^Am7" BBBB B2>A2 |"^Am7b5" BA _E4"^D7"zF |"^Bm7" AAAA A2>G2 |"^Bbo" _D6zE | %5
w: To-|day I may not have a|thing at all, ex-|cept for just a dream or|two. But|
"^Am7" GGGG"^D7sus" G2"^D7/C" FE |"^Bm7"F D2E"^E7" =F2 ED |"^Am7"E C2D"^D7" _E2>D2 | %8
w: I've got lots of plans for to-|mor- row, and all my to-|mor- rows be- long to|
"^Gmaj7" D4"^Bm7" z2"^E7" E2 |"^Am7" BBBB B2>A2 |"^Am7b5" BA _E4"^D7"zF |"^Bm7" AAAA A2>G2 | %12
w: you. Right|now it may not seem like|spring at all, We're|drift- ing and the laughs are|
"^Bbo" _D6zE |"^Am7" GGGG"^D7sus" G2"^D7/C" FE |"^Bm7"F D2E"^E7" =F2 ED |"^Am7"E C2D"^D7" _E2>D2 | %16
w: few. But|I've got rain- bows planned for to-|mor- row, and all my to-|mor- rows be- long to|
"^Dm7" D6"^G7" z2 |"^Cmaj7" z2 E2 F2 G2 |"^Cm7" _BAGG- GBAG |"^Gmaj7" BAGG-"^Em7/D" G2 A2 | %20
w: you.|No one knows|bet- ter than I _ that luck keeps|pass- ing me by, * that's|
"^C#m7b5" B8"^Cm6" |"^G6/B" z2 G2"^Em7" A2 B2 |"^Am7" dcBB-"^D" BdcB | %23
w: fate!|But with you|there at my side, _ I'll soon be|
"^B7" dcBB-"^E9" B2"^Aaug9" B2 |"^D7sus4" D4 z2"^E7" E2 |"^Am7" BBBB B2>A2 | %26
w: turn- ing the tide, _ just|wait! As|long as I've got arms that|
"^Am7b5" BA _E4"^D7"zF |"^Bm7" AAAA A2>G2 |"^B¨o" _D6zE |"^Am7" GGGG"^D7sus" G2"^D7/C" FE | %30
w: cling at all, it's|you that I'll be cling- ing|to. And|all the dreams I dream, beg, or|
"^Bm7"F D2E"^E7" =F2 ED |"^Am7"E C2D"^D7" _E2>D2 |"^Bm7b5" B6"^E7" E2 |"^Am7" BBBB (3B2 A2 B2 | %34
w: bor- row, on some bright to-|mor- row they'll all come|true, and|all my bright to- mor- rows be-|
"^Am7" c4"^D7" D4 |1"^G6" G4"^Bm7" z4"^E7" :|"^G6" G8 |] %37
w: long to|you.|you.|

